X:1
T:He Leadeth Me
T:Text: Joseph H. Gilmore (1834-1918) Tune: William B. Bradbury (1816-1868)
T:LM Refrain [HE LEADETH ME] www.hymnary.org/text/he_leadeth_me_o_blessed_thought
T:He Leadeth Me
T:This hymn is in the public domain.  You may freely use this score for personal and congregational worship.  If you reproduce the score, please credit Hymnary.org as the source. 
T:This hymn is in the public domain.  You may freely use this score for personal and congregational worship.  If you reproduce the score, please credit Hymnary.org as the source. 
Z:This hymn is in the public domain.  You may freely use this score for personal and congregational worship.  If you reproduce the score, please credit Hymnary.org as the source.
%%score ( 1 2 ) ( 3 4 )
L:1/8
M:4/4
K:C
V:1 treble nm="Piano" snm="Pno."
V:2 treble 
V:3 bass nm="Piano" snm="Pno."
V:4 bass 
V:1
 [EG]2 | [CE]3 [B,D] C2 [CG]2 | [CA]2 [CF]2 [CF]2 [FA]2 | [EG]3 [CE] [CE]2 DC | %4
w: 3~And|when my task on|earth is done, when|by thy grace, the _|
w: 1~He|lea- deth me, O|bles- sed thought! O|words with heaven- ly _|
w: 2~Lord,|I would clasp thy|hand in mine, nor|e- ver mur- mur _|
 [CE]2 [CE]2 [B,D]2 [B,G]2 | [CE]3 [B,D] C2 [CG]2 | [CA]2 F2 [Fc]2 [GB][FA] | %7
w: vic- tory's won, e'en|death's cold wave I|will not flee, since _|
w: com- fort fraught! What-|e'er I do, where-|e'er I be, still _|
w: nor re- pine; con-|tent, what- e'er my|lot may be, since _|
 [EG]2 [CE]2 [CE][B,D][A,C][B,D] | [CE]3 [B,D] C2 ||"^Refrain" [EG]2 | [EG]2 [Cc]2 [DB]2 [Gd]2 | %11
w: God through Jor- * dan _|lea- deth me.|He|lea- deth me, he|
w: 'tis God's hand _ that _|lea- deth me.|||
w: God through Jor- * dan _|lea- deth me.|||
 [Gc]2 [GB][FA] [EG]2 [FA]2 | [EG]2 [CE]2 [CE][B,D][A,C][B,D] | [CE]2 [CE]2 [B,D]2 [B,G]2 | %14
w: lea- deth _ me, by|his own hand _ he _|lea- deth me; his|
w: |||
w: |||
 [CG]2 [Cc]2 [DB]2 [Gd]2 | [Gc]2 [GB][FA] [EG]2 [FA]2 | [EG]2 [CE]2 [CE][B,D][A,C][B,D] | %17
w: faith- ful fol- lower|I would _ be, for|by his hand _ he _|
w: |||
w: |||
 [CE]3 [B,D] C2 |] %18
w: lea- deth me.|
w: |
w: |
V:2
 x2 | x4 C2 x2 | x8 | x6 B,C | x8 | x4 C2 x2 | x2 F2 x4 | x8 | x4 C2 || x2 | x8 | x8 | x8 | x8 | %14
 x8 | x8 | x8 | x4 C2 |] %18
V:3
 [C,G,]2 | [C,G,]3 [C,F,] [C,E,]2 [E,G,]2 | F,2 [F,A,]2 [F,A,]2 [F,C]2 | %3
 [C,C]3 [C,G,] [C,G,]2 F,E, | [G,,G,]2 [G,,G,]2 [G,,G,]2 [G,,G,]2 | %5
 [C,G,]3 [C,F,] [C,E,]2 [E,G,]2 | F,2 [F,A,]2 [F,A,]2 [F,C]2 | [C,C]2 [C,G,]2 [A,,A,]2 [A,,E,]2 | %8
 [G,,G,]3 [G,,F,] [C,E,]2 || [C,G,]2 | [C,C]2 [E,G,]2 G,2 [F,B,]2 | [E,C]2 [F,C]2 [C,C]2 [C,C]2 | %12
 [C,C]2 [C,G,]2 [A,,A,]2 [A,,E,]2 | [G,,G,]2 [G,,G,]2 [G,,G,]2 [G,,F,]2 | %14
 [C,E,]2 [E,G,]2 G,2 [F,B,]2 | [E,C]2 [F,C]2 [C,C]2 [C,C]2 | [C,C]2 [C,G,]2 [A,,A,]2 [A,,E,]2 | %17
 [G,,G,]3 [G,,F,] [C,E,]2 |] %18
V:4
 x2 | x8 | F,2 x6 | x6 C,2 | x8 | x8 | F,2 x6 | x8 | x6 || x2 | x4 G,2 x2 | x8 | x8 | x8 | %14
 x4 G,2 x2 | x8 | x8 | x6 |] %18

